X:1
T:CLYDE-SIDE LASSIES, -- REEL.
T:CLYDE-SIDE LASSIES, -- REEL.
T:SCOTCH.
C:SCOTCH.
L:1/8
M:4/4
K:C
V:1 treble 
V:1
 guAFc F dFcF | AFcF GA_BG | AFcF dFcF | _BAGA BdcB | AFcF dFcF | AFcF GA_BG | AFcF dFcF | %7
 _BAGA (Bc)de"^<coda>" |] vfgag f2 (cf) | g^fga _baga | =fgag f2 (Ac) | _BAGA Bcde | fgag f2 (cf) | %13
 g^fga _bagb | afge fdec | d_BcA (BA)GB"^<coda>"!D.C.! || [Af]3 z |] %17

